X:16
T:B016-  At the Foot of a willow/ O the bank of a brook
S:via BBBM, from 'New Collection of Choicest Songs', 1682
Q:1/4=120
L:1/4
M:6/4
K:Cm
G/2G/2|\
cd=BceE|FF3/2 G/2 G2g|fgedf=B|cedc2G|\
cd=BceE|FF3/2 G/2 G2g|fgedfB|cedc2e|\
dBBfg=B|ced/2c/2gGA|BcGAcG|FGDE2g|\
egedf=B|ced/2c/2=B=AG|FeFEcE|Dd=Bc2|]
